X:5047
T:The Dollaghan
M:4/4
R:Hornpipe
L:1/8
C:Aidan Crossey
K:G
GABc d2de|c2cd B2BA|GABc d2de|dcBA GDEF|
GABc d2de|c2cd B2BA|GABc d2de|dcBA GABc||
defd gdBG|cdeg d2dc|BGAB cEFG|AGFE D2Bc|
defd gdBG|cdeg d2dc|BGAB cEFG|AGFA G4:||
